X: 4173
T: Blue Ribbon
R: polka
M: 2/4
K: Dmajor
|:A2FA defd|A2FA defd|e3d c2~B2|A2FA ~B2A2|
D2FA de~f2|D2FA dcdf|.g2b2 abag|1 ~f2d2 d3B:|2 ~f2d2 d3f||
|:.a2a2 fedf|.a2a2 ~f2ef|g2gf e2ed|c2ec A3f|
.a2a2 fedf|.a2a2 ~f2(3fff|.g2b2 abag|1 ~f2d2 d3f:|2 ~f2d2 d3B||

